X: 15083
T: Gesto, The
R: reel
M: 4/4
K: Gmajor
|:B|GEDE G2 Ge|dGBG dBA<B|GEDE G2 Ge|dGBG A/A/A A:|
f|gede g2 ga|agab agea|gede g2 gb|agab g/g/g ga|
gede g2 ga|agab agea|gdde gaba|gegB A/A/A A||

